resources/svg/dislike-line.svg

<svg fill="currentColor" viewBox="0 0 24 24" xmlns="http://www.w3.org/2000/svg"><path d="M2.80777 1.39355L21.1925 19.7783L19.7783 21.1925L16.0316 17.4456L12 21.4852L3.52154 12.9932C1.48186 10.7095 1.49309 7.2403 3.55524 4.96974L1.39355 2.80777L2.80777 1.39355ZM4.98009 11.6233L12 18.6545L14.6176 16.0316L4.97206 6.38638C3.67816 7.8828 3.67138 10.1211 4.98009 11.6233ZM20.2428 4.75752C22.5054 7.02488 22.5831 10.6372 20.4788 12.9932L18.8442 14.6292L17.4302 13.2152L19.0202 11.6233C20.3937 10.0469 20.3191 7.66541 18.8271 6.17026C17.3281 4.66809 14.9078 4.60717 13.3371 6.01703L12.0021 7.21539L10.6662 6.01796C10.3163 5.70431 9.92487 5.4634 9.51117 5.29488L7.2604 3.04566C8.92926 2.8395 10.6682 3.33385 12.0011 4.52869C14.3502 2.42016 17.9802 2.49016 20.2428 4.75752Z"/></svg>

<svg xmlns="http://www.w3.org/2000/svg" viewBox="0 0 24 24" fill="currentColor">
    <g>
        <path fill="none" d="M0 0H24V24H0z"/>
        <path d="M2.808 1.393l18.384 18.385-1.414 1.414-3.747-3.747L12 21.485 3.52 12.993c-2.04-2.284-2.028-5.753.034-8.023L1.393 2.808l1.415-1.415zm2.172 10.23L12 18.654l2.617-2.623-9.645-9.645c-1.294 1.497-1.3 3.735.008 5.237zm15.263-6.866c2.262 2.268 2.34 5.88.236 8.236l-1.635 1.636-1.414-1.414 1.59-1.592c1.374-1.576 1.299-3.958-.193-5.453-1.5-1.502-3.92-1.563-5.49-.153l-1.335 1.198-1.336-1.197c-.35-.314-.741-.555-1.155-.723l-2.25-2.25c1.668-.206 3.407.289 4.74 1.484 2.349-2.109 5.979-2.039 8.242.228z"/>
    </g>
</svg>
